docs/examples/te_gemma/media/fp8_model_init_1_half.svg

<?xml version="1.0" encoding="UTF-8" standalone="no"?>
<svg
   width="960"
   height="373.58408"
   overflow="hidden"
   version="1.1"
   id="svg23"
   xmlns="http://www.w3.org/2000/svg"
   xmlns:svg="http://www.w3.org/2000/svg">
  <defs
     id="defs23">
    <clipPath
       clipPathUnits="userSpaceOnUse"
       id="clipPath23">
      <rect
         style="fill:none"
         id="rect24"
         width="997.38257"
         height="373.58408"
         x="-11.584002"
         y="41.702408"
         ry="36.489601" />
    </clipPath>
  </defs>
  <g
     id="g23"
     clip-path="url(#clipPath23)"
     transform="translate(0,-41.702408)">
    <rect
       x="0"
       y="0"
       width="960"
       height="480"
       fill="#ffffff"
       id="rect1" />
    <text
       font-family="'NVIDIA Sans', 'NVIDIA Sans_MSFontService', sans-serif"
       font-weight="700"
       font-size="22px"
       transform="translate(195.4,93)"
       id="text1">FP32/BF16</text>
    <path
       d="M 461,61 V 404.312"
       stroke="#000000"
       stroke-width="2"
       stroke-miterlimit="8"
       fill="none"
       fill-rule="evenodd"
       id="path1" />
    <rect
       x="92"
       y="217"
       width="129"
       height="164"
       stroke="#042433"
       stroke-width="2"
       stroke-miterlimit="8"
       fill="#e8e8e8"
       id="rect2" />
    <rect
       x="107"
       y="242"
       width="103"
       height="71"
       stroke="#000000"
       stroke-width="2"
       stroke-linejoin="round"
       stroke-miterlimit="10"
       fill="#d9f2d0"
       id="rect3" />
    <text
       font-family="'NVIDIA Sans', 'NVIDIA Sans_MSFontService', sans-serif"
       font-weight="400"
       font-size="13px"
       transform="translate(144.193,265)"
       id="text3">High</text>
    <text
       font-family="'NVIDIA Sans', 'NVIDIA Sans_MSFontService', sans-serif"
       font-weight="400"
       font-size="13px"
       transform="translate(130.44,281)"
       id="text4">precision</text>
    <text
       font-family="'NVIDIA Sans', 'NVIDIA Sans_MSFontService', sans-serif"
       font-weight="400"
       font-size="13px"
       transform="translate(137.44,297)"
       id="text5">weight</text>
    <rect
       x="310"
       y="114"
       width="103"
       height="72"
       stroke="#000000"
       stroke-width="2"
       stroke-linejoin="round"
       stroke-miterlimit="10"
       fill="#d9f2d0"
       id="rect5" />
    <text
       font-family="'NVIDIA Sans', 'NVIDIA Sans_MSFontService', sans-serif"
       font-weight="400"
       font-size="13px"
       transform="translate(346.984,138)"
       id="text6">High</text>
    <text
       font-family="'NVIDIA Sans', 'NVIDIA Sans_MSFontService', sans-serif"
       font-weight="400"
       font-size="13px"
       transform="translate(333.231,154)"
       id="text7">precision</text>
    <text
       font-family="'NVIDIA Sans', 'NVIDIA Sans_MSFontService', sans-serif"
       font-weight="400"
       font-size="13px"
       transform="translate(345.151,170)"
       id="text8">input</text>
    <rect
       x="310"
       y="242"
       width="103"
       height="70"
       stroke="#000000"
       stroke-width="2"
       stroke-linejoin="round"
       stroke-miterlimit="10"
       fill="#c1e5f5"
       id="rect8" />
    <text
       font-family="'NVIDIA Sans', 'NVIDIA Sans_MSFontService', sans-serif"
       font-weight="400"
       font-size="13px"
       transform="translate(346.984,265)"
       id="text9">High</text>
    <text
       font-family="'NVIDIA Sans', 'NVIDIA Sans_MSFontService', sans-serif"
       font-weight="400"
       font-size="13px"
       transform="translate(333.23,281)"
       id="text10">precision</text>
    <text
       font-family="'NVIDIA Sans', 'NVIDIA Sans_MSFontService', sans-serif"
       font-weight="400"
       font-size="13px"
       transform="translate(340.65,297)"
       id="text11">GEMM</text>
    <path
       d="M 0.00641402,-0.999979 93.1192,-0.402739 93.1064,1.59722 -0.00641402,0.999979 Z M 91.8051,-3.41123 99.7793,0.64 91.7538,4.5886 Z"
       transform="matrix(1,0,0,-1,210,277.64)"
       id="path11" />
    <path
       d="m 362,186 v 49.395 h -2 V 186 Z m 3,48.061 -4,8 -4,-8 z"
       id="path12" />
    <rect
       x="486"
       y="217"
       width="129"
       height="164"
       stroke="#042433"
       stroke-width="2"
       stroke-miterlimit="8"
       fill="#e8e8e8"
       id="rect12" />
    <rect
       x="501"
       y="242"
       width="103"
       height="71"
       stroke="#000000"
       stroke-width="2"
       stroke-linejoin="round"
       stroke-miterlimit="10"
       fill="#d9f2d0"
       id="rect13" />
    <text
       font-family="'NVIDIA Sans', 'NVIDIA Sans_MSFontService', sans-serif"
       font-weight="400"
       font-size="13px"
       transform="translate(537.665,266)"
       id="text13">High</text>
    <text
       font-family="'NVIDIA Sans', 'NVIDIA Sans_MSFontService', sans-serif"
       font-weight="400"
       font-size="13px"
       transform="translate(523.912,282)"
       id="text14">precision</text>
    <text
       font-family="'NVIDIA Sans', 'NVIDIA Sans_MSFontService', sans-serif"
       font-weight="400"
       font-size="13px"
       transform="translate(530.912,298)"
       id="text15">weight</text>
    <rect
       x="644"
       y="255"
       width="82"
       height="44"
       stroke="#000000"
       stroke-width="2"
       stroke-linejoin="round"
       stroke-miterlimit="10"
       fill="#fbe3d6"
       id="rect15" />
    <text
       font-family="'NVIDIA Sans', 'NVIDIA Sans_MSFontService', sans-serif"
       font-weight="400"
       font-size="13px"
       transform="translate(673.115,273)"
       id="text16">FP8</text>
    <text
       font-family="'NVIDIA Sans', 'NVIDIA Sans_MSFontService', sans-serif"
       font-weight="400"
       font-size="13px"
       transform="translate(662.615,289)"
       id="text17">Weight</text>
    <rect
       x="741"
       y="125"
       width="97"
       height="45"
       stroke="#000000"
       stroke-width="2"
       stroke-linejoin="round"
       stroke-miterlimit="10"
       fill="#d9f2d0"
       id="rect17" />
    <text
       font-family="'NVIDIA Sans', 'NVIDIA Sans_MSFontService', sans-serif"
       font-weight="400"
       font-size="13px"
       transform="translate(777.464,143)"
       id="text18">FP8</text>
    <text
       font-family="'NVIDIA Sans', 'NVIDIA Sans_MSFontService', sans-serif"
       font-weight="400"
       font-size="13px"
       transform="translate(773.297,159)"
       id="text19">input</text>
    <rect
       x="749"
       y="255"
       width="82"
       height="44"
       stroke="#000000"
       stroke-width="2"
       stroke-linejoin="round"
       stroke-miterlimit="10"
       fill="#c1e5f5"
       id="rect19" />
    <text
       font-family="'NVIDIA Sans', 'NVIDIA Sans_MSFontService', sans-serif"
       font-weight="400"
       font-size="13px"
       transform="translate(777.464,273)"
       id="text20">FP8</text>
    <text
       font-family="'NVIDIA Sans', 'NVIDIA Sans_MSFontService', sans-serif"
       font-weight="400"
       font-size="13px"
       transform="translate(768.797,289)"
       id="text21">GEMM</text>
    <path
       d="M 0.015735,-0.999876 34.0184,-0.464776 33.987,1.53498 -0.015735,0.999876 Z M 32.7325,-3.48538 40.6686,0.64 32.6066,4.51362 Z"
       transform="matrix(1,0,0,-1,604,277.64)"
       id="path21" />
    <path
       d="m 726,276 h 15.791 v 2 H 726 Z m 14.458,-3 8,4 -8,4 z"
       id="path22" />
    <path
       d="m 791,170 v 78.156 h -2 V 170 Z m 3,76.822 -4,8 -4,-8 z"
       id="path23" />
    <text
       font-family="'NVIDIA Sans', 'NVIDIA Sans_MSFontService', sans-serif"
       font-weight="700"
       font-size="22px"
       transform="translate(645.181,91)"
       id="text23">FP8</text>
  </g>
</svg>

<svg width="960" height="480" xmlns="http://www.w3.org/2000/svg" xmlns:xlink="http://www.w3.org/1999/xlink" overflow="hidden"><g><rect x="0" y="0" width="960" height="480" fill="#FFFFFF"/><text font-family="NVIDIA Sans,NVIDIA Sans_MSFontService,sans-serif" font-weight="700" font-size="22" transform="translate(195.4 93)">FP32/BF16</text><path d="M461 61 461 404.312" stroke="#000000" stroke-width="2" stroke-miterlimit="8" fill="none" fill-rule="evenodd"/><rect x="92" y="217" width="129" height="164" stroke="#042433" stroke-width="2" stroke-miterlimit="8" fill="#E8E8E8"/><rect x="107" y="242" width="103" height="71" stroke="#000000" stroke-width="2" stroke-linejoin="round" stroke-miterlimit="10" fill="#D9F2D0"/><text font-family="NVIDIA Sans,NVIDIA Sans_MSFontService,sans-serif" font-weight="400" font-size="13" transform="translate(144.193 265)">High</text><text font-family="NVIDIA Sans,NVIDIA Sans_MSFontService,sans-serif" font-weight="400" font-size="13" transform="translate(130.44 281)">precision</text><text font-family="NVIDIA Sans,NVIDIA Sans_MSFontService,sans-serif" font-weight="400" font-size="13" transform="translate(137.44 297)">weight</text><rect x="310" y="114" width="103" height="72" stroke="#000000" stroke-width="2" stroke-linejoin="round" stroke-miterlimit="10" fill="#D9F2D0"/><text font-family="NVIDIA Sans,NVIDIA Sans_MSFontService,sans-serif" font-weight="400" font-size="13" transform="translate(346.984 138)">High</text><text font-family="NVIDIA Sans,NVIDIA Sans_MSFontService,sans-serif" font-weight="400" font-size="13" transform="translate(333.231 154)">precision</text><text font-family="NVIDIA Sans,NVIDIA Sans_MSFontService,sans-serif" font-weight="400" font-size="13" transform="translate(345.151 170)">input</text><rect x="310" y="242" width="103" height="70" stroke="#000000" stroke-width="2" stroke-linejoin="round" stroke-miterlimit="10" fill="#C1E5F5"/><text font-family="NVIDIA Sans,NVIDIA Sans_MSFontService,sans-serif" font-weight="400" font-size="13" transform="translate(346.984 265)">High</text><text font-family="NVIDIA Sans,NVIDIA Sans_MSFontService,sans-serif" font-weight="400" font-size="13" transform="translate(333.23 281)">precision</text><text font-family="NVIDIA Sans,NVIDIA Sans_MSFontService,sans-serif" font-weight="400" font-size="13" transform="translate(340.65 297)">GEMM</text><path d="M0.00641402-0.999979 93.1192-0.402739 93.1064 1.59722-0.00641402 0.999979ZM91.8051-3.41123 99.7793 0.64 91.7538 4.5886Z" transform="matrix(1 0 0 -1 210 277.64)"/><path d="M362 186 362 235.395 360 235.395 360 186ZM365 234.061 361 242.061 357 234.061Z"/><rect x="486" y="217" width="129" height="164" stroke="#042433" stroke-width="2" stroke-miterlimit="8" fill="#E8E8E8"/><rect x="501" y="242" width="103" height="71" stroke="#000000" stroke-width="2" stroke-linejoin="round" stroke-miterlimit="10" fill="#D9F2D0"/><text font-family="NVIDIA Sans,NVIDIA Sans_MSFontService,sans-serif" font-weight="400" font-size="13" transform="translate(537.665 266)">High</text><text font-family="NVIDIA Sans,NVIDIA Sans_MSFontService,sans-serif" font-weight="400" font-size="13" transform="translate(523.912 282)">precision</text><text font-family="NVIDIA Sans,NVIDIA Sans_MSFontService,sans-serif" font-weight="400" font-size="13" transform="translate(530.912 298)">weight</text><rect x="644" y="255" width="82" height="44" stroke="#000000" stroke-width="2" stroke-linejoin="round" stroke-miterlimit="10" fill="#FBE3D6"/><text font-family="NVIDIA Sans,NVIDIA Sans_MSFontService,sans-serif" font-weight="400" font-size="13" transform="translate(673.115 273)">FP8</text><text font-family="NVIDIA Sans,NVIDIA Sans_MSFontService,sans-serif" font-weight="400" font-size="13" transform="translate(662.615 289)">Weight</text><rect x="741" y="125" width="97" height="45" stroke="#000000" stroke-width="2" stroke-linejoin="round" stroke-miterlimit="10" fill="#D9F2D0"/><text font-family="NVIDIA Sans,NVIDIA Sans_MSFontService,sans-serif" font-weight="400" font-size="13" transform="translate(777.464 143)">FP8</text><text font-family="NVIDIA Sans,NVIDIA Sans_MSFontService,sans-serif" font-weight="400" font-size="13" transform="translate(773.297 159)">input</text><rect x="749" y="255" width="82" height="44" stroke="#000000" stroke-width="2" stroke-linejoin="round" stroke-miterlimit="10" fill="#C1E5F5"/><text font-family="NVIDIA Sans,NVIDIA Sans_MSFontService,sans-serif" font-weight="400" font-size="13" transform="translate(777.464 273)">FP8</text><text font-family="NVIDIA Sans,NVIDIA Sans_MSFontService,sans-serif" font-weight="400" font-size="13" transform="translate(768.797 289)">GEMM</text><path d="M0.015735-0.999876 34.0184-0.464776 33.987 1.53498-0.015735 0.999876ZM32.7325-3.48538 40.6686 0.64 32.6066 4.51362Z" transform="matrix(1 0 0 -1 604 277.64)"/><path d="M726 276 741.791 276 741.791 278 726 278ZM740.458 273 748.458 277 740.458 281Z"/><path d="M791 170 791 248.156 789 248.156 789 170ZM794 246.822 790 254.822 786 246.822Z"/><text font-family="NVIDIA Sans,NVIDIA Sans_MSFontService,sans-serif" font-weight="700" font-size="22" transform="translate(645.181 91)">FP8</text></g></svg>
